X:60
T:WHRWAD1- Where wad bonnie Annie ly
S:SMM #324
L:1/8
M:2/4
K:F
A/G/|F f f e/d/|c c A A|G _e =e d/c/|B B G2|F f g/f/ e/d/|\
c2A A|B/A/ G/F/ E G/B/|AF2||\
A/B/|(c/B/) A/G/ F A|c cA2|B/A/ G/F/ _E G|\
B B G G|c/B/ A/G/ F A|c2f3/2 c/|\
B/A/ G/F/ E/F/ G/B/|AF2|]
